X:1
T:Fado da revista «Esculápio em Cuecas», récita de despedida do Vº ano médico 1925-26
T:Fado
T:Récita de Despedida do V ano médico (1925-26)
T:Música de A. Teixeira Lopes
T:Versos de Alberto Costa
T:Esculápio em Cuecas
T:Galáxia Sonora Coimbrã 2020 (Leonor Serrano)
T:Galáxia Sonora Coimbrã 2020 (Leonor Serrano)
C:A. Teixeira Lopes
Z:Alberto Costa
Z:Galáxia Sonora Coimbrã 2020 (Leonor Serrano)
%%score { ( 1 4 ) | ( 2 3 ) }
L:1/8
Q:1/4=120
M:4/4
K:G
V:1 treble nm="Piano" snm="Pno."
V:4 treble 
V:2 bass 
V:3 bass 
V:1
 z"^Allegretto" g{/b} (!>!a.g/) z/ || %1
w: |
S!f!"^Leggiero"{/b} (!>!a.g/) z/{/b} (!>!a.g/) z/{/b} (!>!a.g/) z/{/b} (!>!af/) z/ | %2
w: |
{/g} (!>!fe/) z/{/f} (!>!e.^d/) z/ B4 |!p! z Bb^a =a f2 B | [Bg]4 z g{/b} (!>!a.g/) z/ | %5
w: |||
!f!{/b} (!>!a.g/) z/{/b} (!>!a.g/) z/{/b} (!>!a.g/) z/{/b} (!>!af/) z/ | %6
w: |
!f!{/g} (!>!f.e/) z/{/f} (!>!e.^d/) z/ B4 | z Bb"_rall ................"^a =a f2 B | %8
w: ||
 [Ge]4 [egbe']2 !fermata!z"^Voz" e!fine! |:"^Moderato"!p! B2 G2 E c2 B | A2 F4- Ff | %11
w: * * Nes-|ta vi- da fran- ca-|men- te, * Há|
 e2 ^d2 A d2 c |1 B4- B2 z e :|2"^Piu Animato" B4- B2 z d || d2 e2 d e2 d | e2 d4- de | %16
w: tan- ta con- tra- di-|ção! * Nes-|ção! * Fu-|mo ne- gro so- b'ao|céu, * * Á-|
 e2 =f2 e f2 e | =f2 e4- ee |"_Tempo"!f! !fermata![ca]3 [cg] [cf] [ce]2 [cf] | e2 B4- Bd | %20
w: gua pu- ra cae no|chão * * Fu-|mo ne- gro so- b'ao|céu, * * Á-|
 c2 B2 A F2 [^DB] |S E4- E g{/b} (!>!a.g/) z/!D.S.! |] %22
w: gua pu- ra cae no|chão * * * *|
V:2
"^Piano" z4 || E,2 [B,E]2 G,2 [B,E]2 | B,,2 [A,B,^D]2 F,2 [A,B,D]B,- | F3 E ^D2 B,2 | %4
 E,2 .[B,E].[B,F] .[B,G] z z2 | E,2 [B,E]2 G,2 [B,E]2 | B,,2 [A,B,^D]2 F,2 [A,B,D]B,- | %7
 F3 E ^D2 B,2 | E,2 B,,2 E,,2 !fermata!z2 |: E,2 [B,E]2 G,2 [B,E]2 | F,2 [A,B,^D][F,-B,] F,4 | %11
 B,,2 [F,A,B,]2 D,2 [F,A,CD]2 |1 G,2 B,2 [F,B,]4 :|2 %13
 G,2 !arpeggio![B,DG]2 !arpeggio![B,DG]2 !arpeggio![B,DG]2 || A,2 [A,CD]2 F,2 [CD]2 | %15
 G, [B,D]2 [B,D]- [B,D]G,F,=F, | E,2 [DE]2 ^G,2[K:treble] [DE^G]2 | A, [EA]2 [EA] C2 [EA]2 | %18
[K:bass] [A,,,A,,]2[K:treble] !arpeggio![CEA]2 !arpeggio![CEA]2 !arpeggio![CEA]2 | %19
 [E,,E,]2 !arpeggio![E,G,B,E]2 !arpeggio![E,G,B,E]2 !arpeggio![E,G,B,E]2 | %20
"^rall molto e   dim" [B,,,B,,]2 !arpeggio![F,A,B,^D]2 !arpeggio![F,A,B,D]2 !arpeggio![F,A,B,D]2 | %21
 [G,B,]4- [G,B,]2 z2 |] %22
V:3
 x4 || x8 | x8 | B,8 | z8 | x8 | x8 | B,8 | x8 |: x8 | x4 C2 B,2 | x8 |1 x4 z2 B,,2 :|2 x8 || x8 | %15
 x8 | x6[K:treble] x2 | x8 |[K:bass] x2[K:treble] x6 | x8 | x8 | E,2 B,,2 E,,2 z2 |] %22
V:4
 x4 || x8 | x8 | x8 | x8 | x8 | x8 | x8 | x8 |: x8 | x8 | x8 |1 z2 [DG]2 [^DFA]2 z2 :|2 x8 || %14
 F2 z2 A2 z2 | B2 B4 z2 | G2 z2 B2 z2 | c2 c4 z2 | x8 | x8 | x8 | x8 |] %22

